images/logo/logo-footer-420.svg

<svg width="131" height="20" viewBox="0 0 131 20" fill="none" xmlns="http://www.w3.org/2000/svg">
<path d="M29 16H0L14.5 0L29 16ZM7.87587 8.08055L9.85065 10.2586L11.8255 8.08055L9.85065 5.89609L7.87587 8.08055ZM9.85065 15.3878L11.8255 13.2098L9.85065 11.0254L7.87587 13.2098L9.85065 15.3878ZM19.1804 15.3878L21.1552 13.2098L19.1804 11.0254L17.1745 13.2098L19.1804 15.3878ZM16.848 3.32501C16.8362 3.34623 16.8204 3.36579 16.8014 3.383C16.1871 4.07249 15.5651 4.76198 14.9354 5.44503C14.881 5.50302 14.9354 5.54169 14.9354 5.59324L16.7547 7.60369L16.8402 7.68745L18.815 5.51591L16.848 3.32501ZM5.20134 15.3878L5.27909 15.3041L7.09837 13.3001C7.12737 13.2749 7.14359 13.2414 7.14359 13.2066C7.14359 13.1718 7.12737 13.1383 7.09837 13.1132C6.54637 12.5204 6.00992 11.9146 5.46568 11.3153L5.20134 11.0254L3.22654 13.2098L5.20134 15.3878ZM10.2005 5.50946L12.1753 7.68745L12.2375 7.62948L14.0957 5.58034C14.1579 5.50946 14.0957 5.4708 14.0957 5.41925L12.2764 3.42167L12.1986 3.3379L10.2005 5.50946ZM10.2005 10.6645L12.1753 12.8425L12.2764 12.7394C12.8673 12.0951 13.4659 11.4506 14.0646 10.7612C14.0813 10.7485 14.0947 10.733 14.1039 10.7159C14.113 10.6986 14.1177 10.6801 14.1177 10.6613C14.1177 10.6425 14.113 10.6239 14.1039 10.6067C14.0947 10.5895 14.0813 10.5741 14.0646 10.5614C13.5048 9.94923 12.9451 9.33711 12.393 8.71846L12.1753 8.48652L10.2005 10.6645ZM19.5303 10.6645L21.5051 12.8425L23.4799 10.6645L21.5051 8.48652L19.5303 10.6645ZM16.848 8.48006V8.52517L14.9742 10.5937C14.912 10.6516 14.9354 10.6903 14.9742 10.7418L16.7158 12.675C16.7625 12.733 16.8169 12.791 16.8791 12.8554L18.8539 10.6774L16.848 8.48006ZM7.53379 12.8297C7.54314 12.8108 7.55628 12.7934 7.57267 12.7781L9.44637 10.7096C9.50081 10.6452 9.44637 10.613 9.44637 10.5614L7.60374 8.55095C7.57959 8.52209 7.55083 8.49606 7.51822 8.4736L5.5512 10.6452L7.53379 12.8297ZM19.1494 10.2521L21.1241 8.07409L19.1494 5.90254L17.1745 8.08055L19.1494 10.2521ZM14.4844 5.09706L16.4593 2.91905L14.5156 0.786148H14.4767L12.5796 2.89972C12.5679 2.91515 12.5617 2.93302 12.5617 2.95127C12.5617 2.96951 12.5679 2.98738 12.5796 3.00282L14.4844 5.09706ZM14.4844 10.2521L16.4593 8.07409L14.5 5.89609L12.5252 8.08055L14.4844 10.2521ZM14.4844 15.4071L16.4593 13.2292L14.4844 11.0447L12.5252 13.2098L14.4844 15.4071ZM23.8142 15.4071L25.789 13.2292L23.822 11.0641H23.7831L21.8783 13.1454C21.8161 13.2162 21.8783 13.2485 21.8783 13.2936L23.4332 15.0399L23.8142 15.4071ZM1.11957 15.5296H4.66488L2.90778 13.5964L1.11957 15.5296ZM24.3662 15.5296H27.8804L26.1233 13.5964L24.3662 15.5296ZM13.9402 15.5296L12.1753 13.5964L10.4105 15.5296H13.9402ZM19.7169 15.5296H23.2311L21.474 13.5964L19.7169 15.5296ZM18.5818 15.5296L16.8247 13.5964L15.0676 15.5296H18.5818ZM9.25201 15.5296L7.4949 13.5964L5.7378 15.5296H9.25201Z" fill="white"/>
<path d="M49.72 15.84H49.8C49.8853 15.84 49.96 15.8133 50.024 15.76C50.088 15.696 50.1413 15.6213 50.184 15.536C50.2373 15.4507 50.2747 15.36 50.296 15.264C50.328 15.168 50.344 15.0773 50.344 14.992V6.432C50.344 6.35733 50.328 6.272 50.296 6.176C50.2747 6.08 50.2373 5.98933 50.184 5.904C50.1413 5.81867 50.088 5.74933 50.024 5.696C49.96 5.632 49.8853 5.6 49.8 5.6H49.72V5.44H52.024V5.6H51.944C51.8587 5.6 51.784 5.632 51.72 5.696C51.656 5.74933 51.6027 5.81867 51.56 5.904C51.5173 5.98933 51.48 6.08 51.448 6.176C51.4267 6.272 51.416 6.35733 51.416 6.432V15.408H54.92C55.1227 15.408 55.2987 15.36 55.448 15.264C55.5973 15.168 55.72 15.0507 55.816 14.912C55.9227 14.7627 55.9973 14.608 56.04 14.448C56.0933 14.2773 56.12 14.1227 56.12 13.984H56.28V16H49.72V15.84ZM66.8933 5.28C67.7253 5.28 68.4719 5.42933 69.1333 5.728C69.7946 6.016 70.3546 6.41067 70.8133 6.912C71.2826 7.40267 71.6399 7.97867 71.8853 8.64C72.1413 9.29067 72.2693 9.97333 72.2693 10.688C72.2693 11.488 72.1199 12.224 71.8213 12.896C71.5333 13.568 71.1333 14.144 70.6213 14.624C70.1093 15.104 69.5119 15.4827 68.8293 15.76C68.1573 16.0267 67.4373 16.16 66.6693 16.16C65.8479 16.16 65.1066 16.0107 64.4453 15.712C63.7946 15.4133 63.2399 15.0187 62.7812 14.528C62.3333 14.0373 61.9866 13.472 61.7413 12.832C61.4959 12.192 61.3733 11.5253 61.3733 10.832C61.3733 10.1493 61.4959 9.47733 61.7413 8.816C61.9866 8.144 62.3439 7.54667 62.8133 7.024C63.2933 6.50133 63.8746 6.08 64.5573 5.76C65.2399 5.44 66.0186 5.28 66.8933 5.28ZM66.8773 15.6C67.5919 15.568 68.2159 15.408 68.7493 15.12C69.2933 14.8213 69.7466 14.448 70.1093 14C70.4719 13.5413 70.7386 13.04 70.9093 12.496C71.0906 11.952 71.1813 11.4133 71.1813 10.88C71.1813 10.2933 71.0746 9.70133 70.8613 9.104C70.6479 8.50667 70.3439 7.968 69.9493 7.488C69.5546 6.99733 69.0799 6.60267 68.5253 6.304C67.9813 5.99467 67.3679 5.84 66.6853 5.84C66.0239 5.84 65.4319 5.98933 64.9093 6.288C64.3866 6.576 63.9386 6.94933 63.5653 7.408C63.2026 7.86667 62.9253 8.37867 62.7333 8.944C62.5413 9.50933 62.4453 10.064 62.4453 10.608C62.4453 11.1947 62.5573 11.7867 62.7812 12.384C63.0053 12.9707 63.3146 13.504 63.7093 13.984C64.1039 14.464 64.5679 14.8533 65.1013 15.152C65.6453 15.4507 66.2373 15.6 66.8773 15.6ZM78.6731 5.44H80.9451V5.6H80.8651C80.7798 5.6 80.7051 5.632 80.6411 5.696C80.5771 5.74933 80.5185 5.81867 80.4651 5.904C80.4225 5.98933 80.3905 6.08 80.3691 6.176C80.3478 6.272 80.3371 6.35733 80.3371 6.432V12.752C80.3371 13.168 80.3798 13.552 80.4651 13.904C80.5505 14.256 80.6945 14.56 80.8971 14.816C81.0998 15.072 81.3665 15.2747 81.6971 15.424C82.0278 15.5627 82.4331 15.632 82.9131 15.632C83.4465 15.632 83.8731 15.5467 84.1931 15.376C84.5131 15.2053 84.7585 14.9867 84.9291 14.72C85.0998 14.4427 85.2118 14.1333 85.2651 13.792C85.3185 13.4507 85.3451 13.1147 85.3451 12.784V6.432C85.3451 6.35733 85.3345 6.272 85.3131 6.176C85.2918 6.08 85.2545 5.98933 85.2011 5.904C85.1585 5.81867 85.1051 5.74933 85.0411 5.696C84.9771 5.632 84.9078 5.6 84.8331 5.6H84.7531V5.44H86.4971V5.6H86.4171C86.3318 5.6 86.2571 5.632 86.1931 5.696C86.1398 5.74933 86.0865 5.81867 86.0331 5.904C85.9905 5.98933 85.9585 6.08 85.9371 6.176C85.9158 6.272 85.9051 6.35733 85.9051 6.432V12.736C85.9051 13.4293 85.8198 14 85.6491 14.448C85.4785 14.8853 85.2438 15.232 84.9451 15.488C84.6465 15.744 84.2945 15.92 83.8891 16.016C83.4945 16.112 83.0731 16.16 82.6251 16.16C82.1451 16.16 81.6971 16.1067 81.2811 16C80.8758 15.904 80.5238 15.728 80.2251 15.472C79.9265 15.216 79.6918 14.8693 79.5211 14.432C79.3505 13.984 79.2651 13.424 79.2651 12.752V6.432C79.2651 6.35733 79.2545 6.272 79.2331 6.176C79.2118 6.08 79.1745 5.98933 79.1211 5.904C79.0785 5.81867 79.0251 5.74933 78.9611 5.696C78.8971 5.632 78.8278 5.6 78.7531 5.6H78.6731V5.44ZM94.3289 6C94.3289 6.064 94.3449 6.144 94.3769 6.24L97.1929 13.824L100.009 6.16C100.02 6.13867 100.03 6.10667 100.041 6.064C100.052 6.02133 100.057 5.98933 100.057 5.968C100.057 5.84 100.004 5.74933 99.8969 5.696C99.8009 5.632 99.7102 5.6 99.6249 5.6V5.44H101.369V5.6C101.209 5.6 101.06 5.64267 100.921 5.728C100.793 5.81333 100.692 5.95733 100.617 6.16L96.9529 16.192L93.2089 6.208C93.1449 6.048 93.0489 5.90933 92.9209 5.792C92.8035 5.67467 92.6542 5.61067 92.4729 5.6V5.44H94.7449V5.6C94.6489 5.6 94.5529 5.63733 94.4569 5.712C94.3715 5.776 94.3289 5.872 94.3289 6ZM109.615 15.84H109.695V16H107.439V15.84H107.519C107.593 15.84 107.663 15.808 107.727 15.744C107.791 15.68 107.844 15.6053 107.887 15.52C107.94 15.4347 107.977 15.344 107.999 15.248C108.02 15.1413 108.031 15.0453 108.031 14.96V6.432C108.031 6.35733 108.02 6.272 107.999 6.176C107.977 6.08 107.94 5.98933 107.887 5.904C107.844 5.81867 107.791 5.74933 107.727 5.696C107.663 5.632 107.593 5.6 107.519 5.6H107.439V5.44H110.223C111.289 5.44 112.111 5.648 112.687 6.064C113.273 6.48 113.567 7.09333 113.567 7.904C113.567 8.30933 113.497 8.66667 113.359 8.976C113.231 9.27467 113.055 9.536 112.831 9.76C112.607 9.97333 112.34 10.1493 112.031 10.288C111.732 10.416 111.412 10.512 111.071 10.576L112.223 12.336C112.5 12.7627 112.783 13.184 113.071 13.6C113.359 14.0053 113.641 14.4267 113.919 14.864C113.993 14.9707 114.073 15.0827 114.159 15.2C114.255 15.3173 114.351 15.424 114.447 15.52C114.553 15.616 114.66 15.696 114.767 15.76C114.884 15.8133 115.001 15.84 115.119 15.84V16H114.431C114.004 16 113.652 15.8987 113.375 15.696C113.108 15.4827 112.884 15.2373 112.703 14.96C112.223 14.256 111.743 13.5413 111.263 12.816C110.793 12.0907 110.324 11.376 109.855 10.672C109.737 10.6613 109.609 10.6507 109.471 10.64C109.343 10.6187 109.22 10.5973 109.103 10.576V14.96C109.103 15.0453 109.113 15.1413 109.135 15.248C109.156 15.344 109.188 15.4347 109.231 15.52C109.284 15.6053 109.337 15.68 109.391 15.744C109.455 15.808 109.529 15.84 109.615 15.84ZM109.103 5.984V10.048H109.183C109.268 10.0587 109.401 10.0693 109.583 10.08C109.775 10.08 110.009 10.08 110.287 10.08C110.511 10.08 110.745 10.048 110.991 9.984C111.247 9.90933 111.481 9.792 111.695 9.632C111.919 9.46133 112.1 9.24267 112.239 8.976C112.388 8.70933 112.463 8.37333 112.463 7.968C112.463 7.56267 112.383 7.232 112.223 6.976C112.073 6.72 111.86 6.51733 111.583 6.368C111.316 6.21867 110.991 6.11733 110.607 6.064C110.223 6.01067 109.801 5.984 109.343 5.984H109.103ZM121.079 15.84H121.159C121.245 15.84 121.319 15.8133 121.383 15.76C121.447 15.696 121.501 15.6213 121.543 15.536C121.597 15.4507 121.634 15.36 121.655 15.264C121.687 15.168 121.703 15.0773 121.703 14.992V6.432C121.703 6.35733 121.687 6.272 121.655 6.176C121.634 6.08 121.597 5.98933 121.543 5.904C121.501 5.81867 121.447 5.74933 121.383 5.696C121.319 5.632 121.245 5.6 121.159 5.6H121.079V5.44H127.239V6.928H127.079C127.058 6.68267 126.962 6.46933 126.791 6.288C126.621 6.096 126.354 6 125.991 6H122.775V10.048H125.431C125.677 10.048 125.879 9.97333 126.039 9.824C126.21 9.67467 126.295 9.49867 126.295 9.296H126.455V11.296H126.295C126.295 11.104 126.215 10.9387 126.055 10.8C125.895 10.6613 125.687 10.592 125.431 10.592H122.775V15.44H126.279C126.482 15.44 126.658 15.392 126.807 15.296C126.957 15.2 127.079 15.088 127.175 14.96C127.282 14.8213 127.357 14.6773 127.399 14.528C127.453 14.368 127.479 14.2347 127.479 14.128H127.639V16H121.079V15.84Z" fill="white"/>
</svg>

<svg xmlns="http://www.w3.org/2000/svg" width="131" height="20" fill="none"><path fill="#fff" d="M29 16H0L14.5 0zM7.876 8.08 9.85 10.26l1.974-2.178-1.974-2.185zm1.975 7.308 1.974-2.178-1.974-2.185-1.975 2.185zm9.33 0 1.974-2.178-1.975-2.185-2.006 2.185zM16.847 3.325a.2.2 0 0 1-.047.058 164 164 0 0 1-1.866 2.062c-.054.058 0 .097 0 .148l1.82 2.01.085.084 1.975-2.171zM5.201 15.388l.078-.084L7.1 13.3a.12.12 0 0 0 .045-.093.12.12 0 0 0-.046-.094c-.552-.593-1.088-1.198-1.632-1.798l-.265-.29-1.974 2.185zm5-9.879 1.974 2.178.063-.058 1.858-2.049c.062-.07 0-.11 0-.16l-1.82-1.998-.077-.084zm0 5.156 1.974 2.178.101-.104c.591-.644 1.19-1.288 1.789-1.978a.14.14 0 0 0 .039-.045.12.12 0 0 0 0-.11 205.19 205.19 0 0 1-1.71-1.888l-.219-.231zm9.33 0 1.974 2.178 1.975-2.178-1.975-2.178zM16.847 8.48v.045l-1.874 2.069c-.062.058-.039.096 0 .148l1.742 1.933q.069.085.163.18l1.975-2.178zm-9.314 4.35a.2.2 0 0 1 .039-.052l1.873-2.068c.055-.065 0-.097 0-.149l-1.842-2.01a.4.4 0 0 0-.086-.077l-1.967 2.171zm11.615-2.578 1.975-2.178-1.975-2.171-1.975 2.178zm-4.665-5.155L16.46 2.92 14.516.786h-.04L12.58 2.9a.1.1 0 0 0-.018.051q0 .028.018.052zm0 5.155 1.975-2.178L14.5 5.896l-1.975 2.185zm0 5.155 1.975-2.178-1.975-2.184-1.959 2.165zm9.33 0 1.975-2.178-1.967-2.165h-.039l-1.905 2.081c-.062.071 0 .104 0 .149l1.555 1.746zM1.12 15.53h3.545l-1.757-1.934zm23.246 0h3.514l-1.757-1.934zm-10.426 0-1.765-1.934-1.764 1.934zm5.777 0h3.514l-1.757-1.934zm-1.135 0-1.757-1.934-1.757 1.934zm-9.33 0-1.757-1.934-1.757 1.934zM49.72 15.84h.08a.34.34 0 0 0 .224-.08.9.9 0 0 0 .16-.224.9.9 0 0 0 .112-.272.9.9 0 0 0 .048-.272v-8.56a.8.8 0 0 0-.048-.256.9.9 0 0 0-.112-.272.6.6 0 0 0-.16-.208.3.3 0 0 0-.224-.096h-.08v-.16h2.304v.16h-.08a.3.3 0 0 0-.224.096.6.6 0 0 0-.16.208q-.064.128-.112.272a1.2 1.2 0 0 0-.032.256v8.976h3.504a.96.96 0 0 0 .528-.144 1.3 1.3 0 0 0 .368-.352q.16-.225.224-.464.08-.255.08-.464h.16V16h-6.56zM66.893 5.28q1.248 0 2.24.448a4.9 4.9 0 0 1 1.68 1.184 5 5 0 0 1 1.072 1.728q.384.975.384 2.048 0 1.2-.448 2.208a5.1 5.1 0 0 1-1.2 1.728q-.769.72-1.792 1.136-1.008.4-2.16.4-1.231 0-2.224-.448a5.2 5.2 0 0 1-1.664-1.184 5.3 5.3 0 0 1-1.04-1.696 5.5 5.5 0 0 1-.368-2q0-1.024.368-2.016a5.5 5.5 0 0 1 1.072-1.792 5.5 5.5 0 0 1 1.744-1.264q1.025-.48 2.336-.48m-.016 10.32q1.073-.048 1.872-.48A4.5 4.5 0 0 0 70.11 14q.545-.688.8-1.504a5.1 5.1 0 0 0 .272-1.616q0-.88-.32-1.776a5.4 5.4 0 0 0-.912-1.616 4.6 4.6 0 0 0-1.424-1.184q-.816-.464-1.84-.464-.991 0-1.776.448-.783.432-1.344 1.12a5.1 5.1 0 0 0-.832 1.536 5.2 5.2 0 0 0-.288 1.664q0 .88.336 1.776.336.88.928 1.6t1.392 1.168a3.63 3.63 0 0 0 1.776.448M78.673 5.44h2.272v.16h-.08a.3.3 0 0 0-.224.096.9.9 0 0 0-.176.208 1.2 1.2 0 0 0-.096.272 1.2 1.2 0 0 0-.032.256v6.32q0 .624.128 1.152t.432.912q.305.384.8.608.495.208 1.216.208.8 0 1.28-.256t.736-.656a2.5 2.5 0 0 0 .336-.928q.08-.511.08-1.008V6.432q0-.112-.032-.256a.9.9 0 0 0-.112-.272.6.6 0 0 0-.16-.208.3.3 0 0 0-.208-.096h-.08v-.16h1.744v.16h-.08a.3.3 0 0 0-.224.096 1.2 1.2 0 0 0-.16.208 1.2 1.2 0 0 0-.096.272 1.2 1.2 0 0 0-.032.256v6.304q0 1.04-.256 1.712-.255.656-.704 1.04a2.5 2.5 0 0 1-1.056.528 5.3 5.3 0 0 1-1.264.144q-.72 0-1.344-.16a2.5 2.5 0 0 1-1.056-.528q-.447-.384-.704-1.04-.256-.672-.256-1.68v-6.32q0-.112-.032-.256a.9.9 0 0 0-.112-.272.6.6 0 0 0-.16-.208.3.3 0 0 0-.208-.096h-.08zM94.33 6a.8.8 0 0 0 .048.24l2.816 7.584 2.816-7.664a.5.5 0 0 0 .032-.096.4.4 0 0 0 .016-.096q0-.192-.16-.272a.5.5 0 0 0-.272-.096v-.16h1.744v.16a.84.84 0 0 0-.448.128q-.192.128-.304.432l-3.664 10.032-3.744-9.984a1.1 1.1 0 0 0-.288-.416.67.67 0 0 0-.448-.192v-.16h2.272v.16a.47.47 0 0 0-.288.112q-.128.096-.128.288m15.286 9.84h.08V16h-2.256v-.16h.08a.3.3 0 0 0 .208-.096.9.9 0 0 0 .16-.224.9.9 0 0 0 .112-.272 1.5 1.5 0 0 0 .032-.288V6.432q0-.112-.032-.256a.9.9 0 0 0-.112-.272.6.6 0 0 0-.16-.208.3.3 0 0 0-.208-.096h-.08v-.16h2.784q1.6 0 2.464.624.88.625.88 1.84 0 .608-.208 1.072-.192.448-.528.784-.336.32-.8.528a4.6 4.6 0 0 1-.96.288l1.152 1.76q.416.64.848 1.264.431.608.848 1.264.111.16.24.336.144.176.288.32.16.144.32.24.175.08.352.08V16h-.688q-.64 0-1.056-.304a3.1 3.1 0 0 1-.672-.736q-.72-1.056-1.44-2.144-.705-1.088-1.408-2.144l-.384-.032-.368-.064v4.384q0 .128.032.288.032.144.096.272.08.128.16.224a.3.3 0 0 0 .224.096m-.512-9.856v4.064h.08q.127.015.4.032h.704q.335 0 .704-.096a2.2 2.2 0 0 0 .704-.352q.336-.256.544-.656.224-.4.224-1.008t-.24-.992a1.6 1.6 0 0 0-.64-.608 2.8 2.8 0 0 0-.976-.304 9 9 0 0 0-1.264-.08zm11.976 9.856h.08q.128 0 .224-.08a.8.8 0 0 0 .16-.224.8.8 0 0 0 .112-.272.9.9 0 0 0 .048-.272v-8.56a.8.8 0 0 0-.048-.256.8.8 0 0 0-.112-.272.6.6 0 0 0-.16-.208.3.3 0 0 0-.224-.096h-.08v-.16h6.16v1.488h-.16a1.04 1.04 0 0 0-.288-.64q-.255-.288-.8-.288h-3.216v4.048h2.656a.86.86 0 0 0 .608-.224.68.68 0 0 0 .256-.528h.16v2h-.16a.64.64 0 0 0-.24-.496q-.24-.208-.624-.208h-2.656v4.848h3.504a.95.95 0 0 0 .528-.144q.225-.144.368-.336.16-.208.224-.432.08-.24.08-.4h.16V16h-6.56z"/></svg>
